;FLAVOR:Marlin
;TIME:4640
;Filament used: 3.08528m
;Layer height: 0.15
;MINX:95.127
;MINY:89.691
;MINZ:0.2
;MAXX:154.797
;MAXY:121.142
;MAXZ:48.05
;Generated with Cura_SteamEngine 5.4.0
M82 ;absolute extrusion mode
G21 ; set units to millimeters
G90 ; use absolute positioning
M82 ; absolute extrusion mode
M104 S200 ; set extruder temp
M140 S60 ; set bed temp
M190 S60 ; wait for bed temp
M109 S200 ; wait for extruder temp
G28 W ; home all without mesh bed level
G80 ; mesh bed leveling
G92 E0.0 ; reset extruder distance position
G1 Y-3.0 F1000.0 ; go outside print area
G1 X60.0 E9.0 F1000.0 ; intro line
G1 X100.0 E21.5 F1000.0 ; intro line
G92 E0.0 ; reset extruder distance position
G92 E0
G92 E0
G1 F2100 E-0.8
;LAYER_COUNT:320
;LAYER:0
M107
G0 F3600 X96.626 Y96.222 Z0.2
;TYPE:SKIRT
G1 F2100 E0
G1 F1800 X97.453 Y95.49 E0.03673
G1 X97.974 Y95.135 E0.0577
G1 X98.651 Y94.805 E0.08275
G1 X99.473 Y94.519 E0.1117
G1 X100.283 Y94.382 E0.13902
G1 X101.063 Y94.324 E0.16504
G1 X123.304 Y92.973 E0.90614
G1 X124.723 Y92.914 E0.95338
G1 X125.384 Y92.912 E0.97536
G1 X126.416 Y92.957 E1.00972
G1 X127.08 Y93.019 E1.0319
G1 X127.678 Y93.092 E1.05194
G1 X128.59 Y93.24 E1.08267
G1 X129.446 Y93.434 E1.11186
G1 X130.435 Y93.701 E1.14593
G1 X131.581 Y94.065 E1.18592
G1 X132.329 Y94.364 E1.21272
G1 X133.041 Y94.679 E1.23861
G1 X133.668 Y94.99 E1.26189
G1 X134.25 Y95.302 E1.28385
G1 X134.797 Y95.617 E1.30485
G1 X135.611 Y96.132 E1.33689
G1 X136.451 Y96.737 E1.37132
G1 X137.214 Y97.346 E1.40379
G1 X137.926 Y97.977 E1.43543
G1 X138.458 Y98.499 E1.46022
G1 X139.494 Y99.618 E1.51094
G1 X140.226 Y100.556 E1.55051
G1 X140.6 Y101.085 E1.57206
G1 X141.338 Y102.258 E1.61815
G1 X141.742 Y103.073 E1.64841
G1 X141.988 Y103.909 E1.67739
G1 X142.094 Y104.821 E1.70793
G1 X142.067 Y105.758 E1.73911
G1 X141.812 Y106.76 E1.7735
G1 X141.441 Y107.576 E1.80331
G1 X141.017 Y108.287 E1.83084
G1 X140.572 Y108.958 E1.85762
G1 X140.139 Y109.566 E1.88245
G1 X139.732 Y110.079 E1.90423
G1 X138.933 Y110.999 E1.94476
G1 X138.326 Y111.645 E1.97424
G1 X137.343 Y112.529 E2.01821
G1 X136.479 Y113.24 E2.05543
G1 X136.018 Y113.58 E2.07448
G1 X135.349 Y114.038 E2.10144
G1 X134.341 Y114.646 E2.1406
G1 X133.532 Y115.081 E2.17115
G1 X132.758 Y115.446 E2.19961
G1 X132.072 Y115.738 E2.22441
G1 X131.343 Y116.014 E2.25033
G1 X130.41 Y116.323 E2.28302
G1 X129.372 Y116.585 E2.31863
G1 X128.566 Y116.759 E2.34606
G1 X127.849 Y116.886 E2.37027
G1 X126.858 Y117.015 E2.40351
G1 X125.783 Y117.078 E2.43933
G1 X124.662 Y117.088 E2.47661
G1 X123.221 Y117.021 E2.52459
G1 X100.981 Y115.671 E3.26566
G1 X100.272 Y115.617 E3.28931
G1 X99.518 Y115.488 E3.31475
G1 X98.659 Y115.19 E3.34499
G1 X98.086 Y114.93 E3.36592
G1 X97.534 Y114.577 E3.38772
G1 X96.935 Y114.103 E3.41312
G1 X96.329 Y113.397 E3.44407
G1 X95.962 Y112.877 E3.46524
G1 X95.593 Y112.126 E3.49307
G1 X95.367 Y111.468 E3.51621
G1 X95.234 Y110.902 E3.53554
G1 X95.137 Y110.109 E3.56212
G1 X95.127 Y109.506 E3.58218
G1 X95.127 Y100.573 E3.87929
G1 X95.145 Y99.756 E3.90647
G1 X95.246 Y99.002 E3.93177
G1 X95.394 Y98.401 E3.95236
G1 X95.553 Y97.921 E3.96917
G1 X95.91 Y97.233 E3.99496
G1 X96.255 Y96.705 E4.01593
G1 X96.626 Y96.222 E4.03619
G0 F3600 X96.919 Y96.497
G1 F1800 X97.681 Y95.819 E4.07011
G1 X98.149 Y95.495 E4.08905
G1 X98.826 Y95.165 E4.1141
G1 X99.54 Y94.913 E4.13928
G1 X100.313 Y94.781 E4.16536
G1 X101.087 Y94.723 E4.19118
G1 X123.321 Y93.373 E4.93204
G1 X124.724 Y93.314 E4.97875
G1 X125.367 Y93.312 E5.00014
G1 X126.399 Y93.357 E5.03449
G1 X127.032 Y93.416 E5.05564
G1 X127.614 Y93.487 E5.07514
G1 X128.526 Y93.635 E5.10587
G1 X129.342 Y93.82 E5.1337
G1 X130.314 Y94.082 E5.16718
G1 X131.432 Y94.436 E5.20619
G1 X132.167 Y94.73 E5.23251
G1 X132.879 Y95.045 E5.25841
G1 X133.479 Y95.342 E5.28068
G1 X134.051 Y95.649 E5.30227
G1 X134.583 Y95.955 E5.32268
G1 X135.397 Y96.47 E5.35472
G1 X136.201 Y97.05 E5.38769
G1 X136.964 Y97.659 E5.42016
G1 X137.646 Y98.263 E5.45046
G1 X138.164 Y98.771 E5.47459
G1 X139.2 Y99.89 E5.52531
G1 X139.9 Y100.787 E5.56316
G1 X140.262 Y101.298 E5.58399
G1 X140.981 Y102.438 E5.62881
G1 X141.359 Y103.189 E5.65678
G1 X141.591 Y103.957 E5.68346
G1 X141.694 Y104.809 E5.712
G1 X141.668 Y105.701 E5.74169
G1 X141.424 Y106.661 E5.77463
G1 X141.097 Y107.371 E5.80063
G1 X140.673 Y108.082 E5.82816
G1 X140.246 Y108.726 E5.85386
G1 X139.825 Y109.318 E5.87802
G1 X139.43 Y109.817 E5.89919
G1 X138.641 Y110.726 E5.93923
G1 X138.059 Y111.348 E5.96756
G1 X137.089 Y112.22 E6.01094
G1 X136.242 Y112.918 E6.04744
G1 X135.792 Y113.25 E6.06604
G1 X135.142 Y113.695 E6.09224
G1 X134.134 Y114.303 E6.1314
G1 X133.361 Y114.719 E6.16059
G1 X132.601 Y115.078 E6.18855
G1 X131.931 Y115.364 E6.21278
G1 X131.217 Y115.634 E6.23817
G1 X130.284 Y115.943 E6.27086
G1 X129.288 Y116.194 E6.30502
G1 X128.496 Y116.365 E6.33197
G1 X127.797 Y116.489 E6.35558
G1 X126.806 Y116.618 E6.38882
G1 X125.779 Y116.678 E6.42304
G1 X124.68 Y116.688 E6.45959
G1 X123.245 Y116.622 E6.50737
G1 X101.011 Y115.272 E7.24824
G1 X100.336 Y115.222 E7.27075
G1 X99.648 Y115.11 E7.29393
G1 X98.822 Y114.825 E7.323
G1 X98.302 Y114.593 E7.34193
G1 X97.75 Y114.24 E7.36373
G1 X97.215 Y113.816 E7.38643
G1 X96.654 Y113.164 E7.41504
G1 X96.32 Y112.699 E7.43408
G1 X95.971 Y111.995 E7.46022
G1 X95.756 Y111.375 E7.48204
G1 X95.631 Y110.852 E7.49993
G1 X95.537 Y110.102 E7.52507
G1 X95.527 Y109.499 E7.54513
G1 X95.527 Y100.581 E7.84174
G1 X95.542 Y99.808 E7.86746
G1 X95.635 Y99.097 E7.8913
G1 X95.774 Y98.527 E7.91082
G1 X95.933 Y98.047 E7.92764
G1 X96.245 Y97.452 E7.94998
G1 X96.59 Y96.924 E7.97096
G1 X96.919 Y96.497 E7.98889
G0 F3600 X97.215 Y96.768
G1 F1800 X97.912 Y96.146 E8.01996
G1 X98.325 Y95.854 E8.03678
G1 X98.962 Y95.541 E8.06039
G1 X99.608 Y95.307 E8.08324
G1 X100.343 Y95.18 E8.10805
G1 X101.111 Y95.122 E8.13367
G1 X123.338 Y93.773 E8.8743
G1 X124.725 Y93.714 E8.92047
G1 X125.35 Y93.712 E8.94126
G1 X126.382 Y93.757 E8.97562
G1 X126.984 Y93.813 E8.99573
G1 X127.55 Y93.882 E9.01469
G1 X128.462 Y94.03 E9.04542
G1 X129.238 Y94.206 E9.07189
G1 X130.193 Y94.463 E9.10478
G1 X131.284 Y94.808 E9.14284
G1 X132.006 Y95.096 E9.16869
G1 X132.702 Y95.403 E9.19399
G1 X133.29 Y95.694 E9.21581
G1 X133.852 Y95.996 E9.23703
G1 X134.369 Y96.293 E9.25686
G1 X135.183 Y96.808 E9.2889
G1 X135.952 Y97.363 E9.32044
G1 X136.699 Y97.959 E9.35223
G1 X137.366 Y98.549 E9.38185
G1 X137.87 Y99.043 E9.40532
G1 X138.906 Y100.162 E9.45604
G1 X139.574 Y101.018 E9.49215
G1 X139.924 Y101.512 E9.51229
G1 X140.625 Y102.62 E9.5559
G1 X140.977 Y103.308 E9.5816
G1 X141.194 Y104.007 E9.60595
G1 X141.294 Y104.797 E9.63243
G1 X141.269 Y105.645 E9.66065
G1 X141.045 Y106.528 E9.69095
G1 X140.753 Y107.166 E9.71428
G1 X140.329 Y107.877 E9.74182
G1 X139.92 Y108.494 E9.76644
G1 X139.511 Y109.07 E9.78993
G1 X139.128 Y109.555 E9.81049
G1 X138.349 Y110.453 E9.85003
G1 X137.792 Y111.05 E9.87718
G1 X136.834 Y111.911 E9.92003
G1 X136.004 Y112.596 E9.95582
G1 X135.566 Y112.92 E9.97394
G1 X134.935 Y113.353 E9.99939
G1 X133.945 Y113.951 E10.03786
G1 X133.19 Y114.357 E10.06637
G1 X132.444 Y114.71 E10.09382
G1 X131.79 Y114.99 E10.11748
G1 X131.091 Y115.254 E10.14234
G1 X130.158 Y115.563 E10.17503
G1 X129.203 Y115.803 E10.20778
G1 X128.426 Y115.971 E10.23422
G1 X127.745 Y116.092 E10.25722
G1 X126.754 Y116.221 E10.29046
G1 X125.775 Y116.278 E10.32308
G1 X124.698 Y116.288 E10.3589
G1 X123.269 Y116.223 E10.40648
G1 X101.041 Y114.873 E11.14715
G1 X100.366 Y114.823 E11.16966
G1 X99.778 Y114.732 E11.18945
G1 X98.982 Y114.458 E11.21745
G1 X98.518 Y114.256 E11.23428
G1 X97.966 Y113.903 E11.25607
G1 X97.493 Y113.526 E11.27619
G1 X96.977 Y112.928 E11.30246
G1 X96.678 Y112.52 E11.31929
G1 X96.349 Y111.863 E11.34372
G1 X96.145 Y111.28 E11.36427
G1 X96.028 Y110.801 E11.38067
G1 X95.937 Y110.095 E11.40434
G1 X95.927 Y109.492 E11.4244
G1 X95.927 Y100.588 E11.72055
G1 X95.939 Y99.86 E11.74477
G1 X96.032 Y99.149 E11.76862
G1 X96.154 Y98.653 E11.7856
G1 X96.313 Y98.173 E11.80242
G1 X96.58 Y97.67 E11.82136
G1 X96.907 Y97.168 E11.84129
G1 X97.215 Y96.768 E11.85808
G1 F2100 E11.05808
;MESH:3DBenchy.stl
G0 F3600 X100.071 Y97.811
G0 X100.668 Y98.775
G0 X113.895 Y101.628
G0 X114.669 Y102.267
G0 X115.689 Y104.624
G0 X115.683 Y107.493
G0 X116.137 Y108.274
G0 X121.479 Y108.743
G0 X126.938 Y109.007
G0 X127.038 Y109.184
;TYPE:WALL-INNER
G1 F2100 E11.85808
G1 F1222.4 X127.18 Y109.105 E11.86604
G1 F1460.4 X127.585 Y109.068 E11.88271
G1 F1800 X127.846 Y108.972 E11.89196
G1 X128.033 Y108.718 E11.90245
G1 X128.192 Y108.284 E11.91782
G1 X128.456 Y107.694 E11.93932
G1 X128.151 Y107.008 E11.96429
G1 X127.497 Y105.248 E12.02674
G1 X127.237 Y104.608 E12.04972
G1 X127.17 Y104.332 E12.05916
G1 X126.706 Y105.143 E12.09024
G1 X126.406 Y105.63 E12.10926
G1 X126.392 Y105.725 E12.11246
G1 X126.861 Y106.556 E12.1442
G1 X127.173 Y107.066 E12.16408
G1 X127.289 Y107.614 E12.18271
G1 F1614.3 X127.235 Y108.041 E12.19867
G1 F1335.8 X126.89 Y108.596 E12.22796
G1 F1222.4 X126.788 Y108.648 E12.23357
G1 F1451.6 X126.257 Y108.7 E12.25557
G1 F1800 X125.898 Y108.653 E12.26761
G1 X125.737 Y108.582 E12.27347
G1 X125.334 Y108.227 E12.29133
G1 X125.112 Y107.854 E12.30577
G1 X124.803 Y108.336 E12.32481
G1 X124.427 Y108.597 E12.34003
G1 X124.104 Y108.668 E12.35103
G1 X123.641 Y108.601 E12.36659
G1 X123.313 Y108.386 E12.37964
G1 X123.147 Y108.169 E12.38872
G1 X122.931 Y108.463 E12.40086
G1 X122.528 Y108.771 E12.41773
G1 X122.032 Y108.942 E12.43518
G1 X121.491 Y108.934 E12.45317
G1 X121.309 Y108.894 E12.45937
G1 X120.919 Y108.718 E12.4736
G1 X120.672 Y108.53 E12.48393
G1 X120.401 Y108.196 E12.49823
G1 X120.217 Y107.692 E12.51608
G1 X119.791 Y108.028 E12.53412
G1 X119.268 Y108.288 E12.55355
G1 X118.512 Y108.446 E12.57924
G1 X117.954 Y108.486 E12.59784
G1 X117.047 Y108.477 E12.62801
G1 X116.488 Y108.515 E12.64665
G1 X116.031 Y108.383 E12.66247
G1 X115.743 Y108.112 E12.67562
G1 X115.551 Y107.609 E12.69353
G1 X115.522 Y107.234 E12.70604
G1 F1361.1 X115.394 Y106.715 E12.72955
G1 X115.113 Y107.168 E12.753
G1 F1800 X114.853 Y107.637 E12.77084
G1 X114.463 Y108.073 E12.79029
G1 X114.118 Y108.319 E12.80439
G1 X113.61 Y108.538 E12.82278
G1 X113.054 Y108.657 E12.8417
G1 X112.264 Y108.637 E12.86798
G1 X111.535 Y108.456 E12.89296
G1 X111.101 Y108.195 E12.90981
G1 X110.818 Y107.886 E12.92374
G1 X110.63 Y107.43 E12.94015
G1 X110.633 Y106.888 E12.95818
G1 X110.748 Y106.61 E12.96818
G1 X110.913 Y106.394 E12.97722
G1 X111.142 Y106.224 E12.98671
G1 X111.409 Y106.124 E12.99619
G1 F1764.7 X112.044 Y106.11 E13.01774
G1 F1686.2 X112.323 Y106.203 E13.02818
G1 F1614.3 X112.812 Y106.533 E13.05006
G1 F1589.4 X112.89 Y106.5 E13.05325
G1 X112.981 Y106.381 E13.05889
G1 X112.969 Y106.187 E13.06621
G1 X112.848 Y106.007 E13.07438
G1 F1614.3 X112.486 Y105.795 E13.08994
G1 F1674.4 X111.803 Y105.627 E13.11509
G1 F1751.8 X111.597 Y105.462 E13.12411
G1 F1800 X111.4 Y105.229 E13.13426
G1 X111.316 Y104.987 E13.14278
G1 X111.291 Y104.573 E13.15657
G1 X111.463 Y104.083 E13.17384
G1 X111.689 Y103.82 E13.18538
G1 X111.502 Y103.806 E13.19161
G1 X111.234 Y103.711 E13.20107
G1 X110.886 Y103.422 E13.21612
G1 X110.652 Y102.995 E13.23231
G1 X110.447 Y103.285 E13.24412
G1 X110.287 Y103.408 E13.25084
G1 X109.864 Y103.566 E13.26585
G1 X109.158 Y103.61 E13.28938
G1 X108.835 Y103.593 E13.30014
G1 X108.829 Y106.694 E13.40328
G1 X108.844 Y107.331 E13.42447
G1 X108.719 Y107.915 E13.44434
G1 X108.457 Y108.247 E13.4584
G1 X108.237 Y108.383 E13.467
G1 X107.833 Y108.507 E13.48106
G1 X107.444 Y108.473 E13.49405
G1 X107.2 Y108.384 E13.50269
G1 X106.902 Y108.176 E13.51477
G1 X106.714 Y107.85 E13.52729
G1 X106.676 Y107.677 E13.53318
G1 X106.697 Y106.992 E13.55598
G1 X106.687 Y106.224 E13.58152
G1 X106.688 Y103.579 E13.66949
G1 X106.485 Y103.576 E13.67625
G1 X105.888 Y103.649 E13.69625
G1 X105.655 Y103.632 E13.70402
G1 X105.305 Y103.501 E13.71645
G1 X105.024 Y103.239 E13.72923
G1 X104.918 Y103.037 E13.73682
G1 X104.874 Y103.261 E13.74441
G1 X104.69 Y103.588 E13.75689
G1 X104.45 Y103.821 E13.76801
G1 X104.024 Y103.989 E13.78325
G1 X103.727 Y103.988 E13.79312
G1 X103.264 Y103.842 E13.80927
G1 X102.691 Y103.499 E13.83148
G1 X102.525 Y103.472 E13.83708
G1 X102.231 Y103.537 E13.84709
G1 X101.982 Y103.709 E13.85716
G1 X101.845 Y103.908 E13.86519
G1 X101.75 Y104.16 E13.87415
G1 X101.686 Y104.515 E13.88615
G1 X101.671 Y105.215 E13.90943
G1 X101.726 Y105.668 E13.92461
G1 X101.819 Y105.975 E13.93528
G1 X101.921 Y106.154 E13.94213
G1 X102.142 Y106.35 E13.95196
G1 X102.306 Y106.421 E13.9579
G1 X102.672 Y106.455 E13.97013
G1 X102.897 Y106.395 E13.97787
G1 X103.124 Y106.162 E13.98869
G1 X103.288 Y106.068 E13.99498
G1 X103.676 Y105.948 E14.00849
G1 X103.864 Y105.943 E14.01474
G1 X104.331 Y106.062 E14.03077
G1 X104.628 Y106.258 E14.04261
G1 X104.896 Y106.631 E14.05788
G1 X104.97 Y107.044 E14.07184
G1 X104.926 Y107.244 E14.07865
G1 X104.632 Y107.811 E14.09989
G1 X104.168 Y108.241 E14.12093
G1 X103.658 Y108.487 E14.13977
G1 X103.173 Y108.613 E14.15643
G1 X102.592 Y108.655 E14.17581
G1 X101.86 Y108.585 E14.20026
G1 X101.234 Y108.364 E14.22234
G1 X100.761 Y108.083 E14.24064
G1 X100.435 Y107.802 E14.25496
G1 X100.068 Y107.353 E14.27425
G1 X99.727 Y106.715 E14.29831
G1 X99.727 Y109.978 E14.40683
G1 X99.796 Y110.285 E14.4173
G1 X99.902 Y110.515 E14.42572
G1 X100.161 Y110.813 E14.43885
G1 X100.283 Y110.895 E14.44374
G1 X100.719 Y111.045 E14.45908
G1 X124.371 Y112.482 E15.2472
G1 X124.989 Y112.499 E15.26776
G1 X125.657 Y112.487 E15.28998
G1 X126.627 Y112.416 E15.32233
G1 X127.454 Y112.294 E15.35014
G1 X128.325 Y112.126 E15.37964
G1 X129.251 Y111.875 E15.41155
G1 X130.312 Y111.499 E15.44899
G1 X131.258 Y111.081 E15.48339
G1 X131.714 Y110.85 E15.50039
G1 X132.506 Y110.401 E15.53067
G1 X133.021 Y110.07 E15.55103
G1 X133.718 Y109.571 E15.57954
G1 X134.181 Y109.203 E15.59921
G1 X134.767 Y108.684 E15.62525
G1 X133.106 Y108.679 E15.68049
G1 X132.591 Y108.697 E15.69763
G1 X132.381 Y108.656 E15.70475
G1 X132.056 Y108.513 E15.71656
G1 X131.767 Y108.185 E15.7311
G1 X131.623 Y107.777 E15.74549
G1 F1469.4 X131.568 Y107.138 E15.77162
G1 F1228.7 X131.723 Y106.751 E15.79194
G1 F1454.5 X131.982 Y106.486 E15.80719
G1 F1800 X133.013 Y105.062 E15.86566
G1 X132.484 Y105.011 E15.88334
G1 X132.093 Y104.861 E15.89726
G1 X131.805 Y104.571 E15.91086
G1 X131.587 Y105.045 E15.92821
G1 X131.233 Y106.101 E15.96525
G1 F1454.5 X131.187 Y106.508 E15.98211
G1 F1228.7 X131.006 Y107.001 E16.0077
G1 F1463.4 X130.792 Y107.337 E16.024
G1 F1791 X130.427 Y108.351 E16.06002
G1 F1800 X129.836 Y109.862 E16.11399
G1 X129.374 Y110.587 E16.14258
G1 X128.91 Y110.922 E16.16161
G1 X128.327 Y111.154 E16.18248
G1 X127.933 Y111.217 E16.19576
G1 X127.695 Y111.205 E16.20368
G1 X127.386 Y111.125 E16.2143
G1 X127.12 Y110.975 E16.22445
G1 X126.842 Y110.626 E16.23929
G1 X126.693 Y110.162 E16.2555
G1 X126.739 Y109.695 E16.27111
G1 F1451.6 X127.038 Y109.184 E16.29553
G0 F3600 X126.938 Y109.007
G0 X121.44 Y108.772
G0 X116.491 Y108.36
G0 X114.665 Y104.285
G0 X114.908 Y103.297
G0 X114.669 Y102.267
G0 X113.895 Y101.628
G0 X112.999 Y101.436
G0 X105.845 Y101.572
G0 X104.717 Y101.83
G0 X104.59 Y102.696
;TYPE:WALL-OUTER
G1 F1466.4 X104.541 Y103.012 E16.30858
G1 F1730.8 X104.436 Y103.264 E16.31803
G1 F1800 X104.222 Y103.493 E16.32845
G1 X103.96 Y103.594 E16.33779
G1 X103.761 Y103.59 E16.34441
G1 X103.456 Y103.487 E16.35512
G1 X102.831 Y103.117 E16.37928
G1 X102.54 Y103.069 E16.38909
G1 X102.055 Y103.172 E16.40558
G1 X101.694 Y103.421 E16.42016
G1 X101.487 Y103.721 E16.43229
G1 X101.362 Y104.053 E16.44408
G1 X101.286 Y104.475 E16.45835
G1 X101.27 Y105.235 E16.48363
G1 X101.333 Y105.751 E16.50092
G1 X101.449 Y106.134 E16.51423
G1 X101.606 Y106.41 E16.52479
G1 X101.924 Y106.692 E16.53893
G1 X102.19 Y106.807 E16.54857
G1 X102.497 Y106.861 E16.55893
G1 X102.73 Y106.853 E16.56669
G1 X103.065 Y106.765 E16.57821
G1 X103.409 Y106.452 E16.59368
G1 X103.766 Y106.339 E16.60613
G1 X104.193 Y106.438 E16.62071
G1 X104.381 Y106.573 E16.62841
G1 X104.536 Y106.806 E16.63772
G1 X104.573 Y107.059 E16.64622
G1 X104.307 Y107.57 E16.66538
G1 X103.918 Y107.917 E16.68272
G1 X103.552 Y108.101 E16.69634
G1 X103.122 Y108.216 E16.71115
G1 X102.609 Y108.255 E16.72826
