;FLAVOR:Marlin
;TIME:1799
;Filament used: 3.38094m
;Layer height: 0.4
;Generated with Cura_SteamEngine 3.0.4
M190 S80
M104 S230
M109 S230
M82 ; absolute extrusion mode
G21 ;metric values
G90 ;absolute positioning
M82 ;set extruder to absolute mode
M107 ;start with the fan off
G28 X0 Y0 ;move X/Y to min endstops
G28 Z0 ;move Z to min endstops
G1 Z15.0 F9000 ;move the platform down 15mm
G92 E0 ;zero the extruded length
G1 F200 E3 ;extrude 3mm of feed stock
G92 E0 ;zero the extruded length again
G1 F9000
;Put printing message on LCD screen
M117 Printing...
;LAYER_COUNT:120
;LAYER:0
M107
G0 F3600 X72.071 Y90.643 Z0.3

;LAYER:7
G0 X77.286 Y92.419 Z3.1
;TYPE:FILL
G1 F3600 X73.401 Y96.304 E321.27486
G1 X73.331 Y96.374
G0 F7200 X73.401 Y96.028
G1 F3600 X75.946 Y98.574 E321.51432
G1 X76.016 Y98.644
G0 F7200 X78.796 Y101.423
G1 F3600 X85.615 Y108.242 E322.15581
G1 X85.685 Y108.312
G0 F7200 X85.684 Y108.312
G0 X84.202 Y108.13
G1 F3600 X101.582 Y90.75 E323.79081
G1 X101.652 Y90.68
G0 F7200 X102.123 Y90.809
G1 F3600 X113.932 Y102.618 E324.90173
G1 X114.002 Y102.688
G0 F7200 X113.975 Y102.664
G0 X115.425 Y99.534
G1 F3600 X107.179 Y107.78 E325.67747
G1 X107.109 Y107.85
G0 F7200 X107.593 Y107.593
G1 F3600 X91.297 Y91.297 E327.21049
G1 X91.227 Y91.227
G0 F7200 X91.226 Y91.242
G0 X89.585 Y91.433
G1 F3600 X73.838 Y107.18 E328.69187
G1 X73.768 Y107.25
G0 F7200 X73.79 Y107.223
G0 X80.823 Y92.136
G1 F3600 X97.934 Y109.248 E330.30162
G1 X98.004 Y109.318
G0 F7200 X98.005 Y109.317
G0 X94.666 Y108.98
G1 F3600 X109.922 Y93.724 E331.73681
G1 X109.992 Y93.654
G0 F7200 X109.968 Y93.56
;TYPE:WALL-INNER
G1 F3600 X110.503 Y93.93 E331.78008
G1 X111.009 Y94.306 E331.82202
G1 X111.516 Y94.711 E331.86518
G1 X112.005 Y95.13 E331.90802
G1 X112.477 Y95.565 E331.95071
G1 X112.925 Y96.008 E331.99263
G1 X113.371 Y96.482 E332.03592
G1 X113.801 Y96.973 E332.07934
G1 X114.205 Y97.467 E332.12179
G1 X114.6 Y97.988 E332.16528
G1 X114.965 Y98.507 E332.20748
G1 X115.322 Y99.054 E332.25093
G1 X115.649 Y99.591 E332.29276
G1 X115.729 Y99.767 E332.30562
G1 X115.765 Y99.928 E332.31659
G1 X115.761 Y100.098 E332.3279
G1 X115.725 Y100.242 E332.33778
G1 X115.677 Y100.357 E332.34607
G1 X115.555 Y100.569 E332.36234
G1 X115.223 Y101.106 E332.40433
G1 X114.854 Y101.659 E332.44856
G1 X114.483 Y102.174 E332.49078
G1 X114.088 Y102.684 E332.53369
G1 X113.664 Y103.19 E332.5776
G1 X113.228 Y103.676 E332.62104
G1 X112.796 Y104.125 E332.66248
G1 X112.323 Y104.582 E332.70623
G1 X111.85 Y105.008 E332.74858
G1 X111.361 Y105.418 E332.79103
G1 X110.844 Y105.823 E332.83471
G1 X110.334 Y106.192 E332.87659
G1 X109.8 Y106.551 E332.91939
G1 X109.236 Y106.902 E332.96358
G1 X108.693 Y107.214 E333.00524
G1 X108.108 Y107.523 E333.04925
G1 X107.536 Y107.799 E333.0915
G1 X106.943 Y108.061 E333.13462
G1 X106.33 Y108.305 E333.17851
G1 X105.708 Y108.528 E333.22246
G1 X105.091 Y108.725 E333.26555
G1 X104.457 Y108.903 E333.30935
G1 X103.807 Y109.06 E333.35383
G1 X103.152 Y109.193 E333.39829
G1 X102.508 Y109.301 E333.44173
G1 X101.834 Y109.388 E333.48694
G1 X101.168 Y109.451 E333.53144
G1 X100.496 Y109.488 E333.57621
G1 X99.812 Y109.502 E333.62172
G1 X99.124 Y109.489 E333.66749
G1 X98.441 Y109.452 E333.71299
G1 X89.805 Y108.741 E334.2894
G1 X74.224 Y107.492 E335.32918
G1 X74.134 Y107.476 E335.33526
G1 X73.891 Y107.395 E335.3523
G1 X73.735 Y107.306 E335.36425
G1 X73.617 Y107.214 E335.3742
G1 X73.51 Y107.101 E335.38455
G1 X73.426 Y106.985 E335.39408
G1 X73.356 Y106.856 E335.40384
G1 X73.284 Y106.66 E335.41773
G1 X73.252 Y106.488 E335.42937
G1 X73.24 Y106.348 E335.43872
G1 X73.241 Y93.619 E336.28545
G1 X73.262 Y93.445 E336.29711
G1 X73.334 Y93.191 E336.31467
G1 X73.402 Y93.051 E336.32503
G1 X73.528 Y92.871 E336.33964
G1 X73.645 Y92.759 E336.35042
G1 X73.772 Y92.667 E336.36085
G1 X73.906 Y92.595 E336.37097
G1 X73.979 Y92.567 E336.37617
G1 X74.149 Y92.517 E336.38796
G1 X74.202 Y92.508 E336.39153
G1 X92.569 Y91.034 E337.61724
G1 X98.666 Y90.535 E338.02417
G1 X99.369 Y90.505 E338.07098
G1 X100.033 Y90.501 E338.11515
G1 X100.721 Y90.523 E338.16093
G1 X101.388 Y90.569 E338.20541
G1 X102.071 Y90.641 E338.25109
G1 X102.712 Y90.732 E338.29416
G1 X103.381 Y90.852 E338.33937
G1 X104.013 Y90.989 E338.38239
G1 X104.672 Y91.157 E338.42763
G1 X105.283 Y91.335 E338.46996
G1 X105.924 Y91.548 E338.5149
G1 X106.517 Y91.768 E338.55697
G1 X107.131 Y92.021 E338.60114
G1 X107.715 Y92.286 E338.6438
G1 X108.29 Y92.572 E338.68652
G1 X108.857 Y92.879 E338.72941
G1 X109.425 Y93.214 E338.77328
G1 X109.968 Y93.56 E338.81611
G0 F7200 X109.913 Y93.643
G0 X89.813 Y108.642
G0 X89.772 Y109.14
;TYPE:WALL-OUTER
G1 F1800 X74.173 Y107.89 E339.85709
G1 X74.039 Y107.866 E339.86614
G1 X73.813 Y107.797 E339.88186
G1 X73.709 Y107.752 E339.8894
G1 X73.512 Y107.64 E339.90447
G1 X73.347 Y107.51 E339.91845
G1 X73.203 Y107.36 E339.93228
G1 X73.086 Y107.197 E339.94562
G1 X72.992 Y107.023 E339.95878
G1 X72.92 Y106.838 E339.97199
G1 X72.895 Y106.754 E339.97782
G1 X72.856 Y106.542 E339.99215
G1 X72.84 Y106.36 E340.00431
G1 X72.841 Y93.597 E340.85331
G1 X72.869 Y93.362 E340.86905
G1 X72.958 Y93.051 E340.89057
G1 X73.054 Y92.852 E340.90526
G1 X73.173 Y92.674 E340.91951
G1 X73.232 Y92.602 E340.9257
G1 X73.387 Y92.453 E340.94
G1 X73.56 Y92.327 E340.95424
G1 X73.743 Y92.23 E340.96802
G1 X73.849 Y92.188 E340.9756
G1 X74.055 Y92.128 E340.98987
G1 X74.162 Y92.11 E340.99709
G1 X92.537 Y90.635 E342.22333
G1 X98.643 Y90.135 E342.63086
G1 X99.352 Y90.105 E342.67807
G1 X100.044 Y90.101 E342.7241
G1 X100.735 Y90.123 E342.77009
G1 X101.43 Y90.171 E342.81643
G1 X102.113 Y90.243 E342.86212
G1 X102.782 Y90.338 E342.90707
G1 X103.458 Y90.459 E342.95275
G1 X104.112 Y90.601 E342.99727
G1 X104.771 Y90.769 E343.04251
G1 X105.409 Y90.955 E343.08671
G1 X106.05 Y91.168 E343.13164
G1 X106.669 Y91.398 E343.17557
G1 X107.283 Y91.651 E343.21975
G1 X107.893 Y91.928 E343.26431
G1 X108.48 Y92.22 E343.30792
G1 X109.06 Y92.534 E343.3518
G1 X109.628 Y92.869 E343.39566
G1 X110.183 Y93.223 E343.43945
G1 X110.73 Y93.601 E343.48368
G1 X111.259 Y93.993 E343.52748
G1 X111.766 Y94.398 E343.57064
G1 X112.265 Y94.826 E343.61437
G1 X112.748 Y95.271 E343.65806
G1 X113.216 Y95.734 E343.70185
G1 X113.672 Y96.218 E343.74609
G1 X114.102 Y96.709 E343.7895
G1 X114.524 Y97.225 E343.83384
G1 X114.919 Y97.746 E343.87734
G1 X115.3 Y98.288 E343.92141
G1 X115.664 Y98.846 E343.96572
G1 X116.002 Y99.402 E344.00901
G1 X116.105 Y99.628 E344.02553
G1 X116.144 Y99.767 E344.03513
G1 X116.164 Y99.892 E344.04355
G1 X116.168 Y100.019 E344.052
G1 X116.158 Y100.153 E344.06094
G1 X116.136 Y100.266 E344.0686
G1 X116.1 Y100.383 E344.07674
G1 X116.037 Y100.533 E344.08757
G1 X115.902 Y100.768 E344.10559
G1 X115.556 Y101.328 E344.14938
G1 X115.187 Y101.881 E344.19361
G1 X114.799 Y102.419 E344.23773
G1 X114.395 Y102.941 E344.28164
G1 X113.971 Y103.447 E344.32555
G1 X113.526 Y103.943 E344.36988
G1 X113.074 Y104.413 E344.41326
G1 X112.601 Y104.87 E344.45701
G1 X112.107 Y105.315 E344.50123
G1 X111.608 Y105.733 E344.54453
G1 X111.091 Y106.138 E344.58822
G1 X110.557 Y106.524 E344.63205
G1 X110.011 Y106.891 E344.67581
G1 X109.445 Y107.243 E344.72015
G1 X108.88 Y107.568 E344.76351
G1 X108.295 Y107.877 E344.80752
G1 X107.698 Y108.165 E344.85161
G1 X107.091 Y108.433 E344.89575
G1 X106.465 Y108.682 E344.94057
G1 X105.843 Y108.905 E344.98452
G1 X105.199 Y109.11 E345.02948
G1 X104.551 Y109.292 E345.07425
G1 X103.902 Y109.449 E345.11867
G1 X103.231 Y109.585 E345.16421
G1 X102.559 Y109.698 E345.20954
G1 X101.885 Y109.785 E345.25475
G1 X101.201 Y109.849 E345.30044
G1 X100.504 Y109.888 E345.34688
G1 X99.813 Y109.902 E345.39286
G1 X99.117 Y109.889 E345.43916
G1 X98.408 Y109.851 E345.48639
G1 X89.772 Y109.14 E346.06281
G0 F7200 X89.573 Y109.125
G0 X89.613 Y108.627
G0 X79.6 Y101.464
;TYPE:WALL-INNER
G1 F3600 X73.64 Y101.465 E346.45927
G1 X73.641 Y98.535 E346.65417
G1 X79.6 Y98.536 E347.05056
G1 X79.6 Y101.464 E347.24534
G0 F7200 X79.169 Y101.283
;TYPE:SKIN
G1 F1800 X79.42 Y101.033 E347.2689
G0 F7200 X79.42 Y100.467
G1 F1800 X78.604 Y101.283 E347.34567
G1 X78.534 Y101.353
G0 F7200 X78.038 Y101.283
G1 F1800 X79.42 Y99.902 E347.47563
G1 X79.49 Y99.832
G0 F7200 X79.42 Y99.336
G1 F1800 X77.472 Y101.283 E347.65884
G1 X77.402 Y101.353
G0 F7200 X76.907 Y101.283
G1 F1800 X79.42 Y98.77 E347.89525
G1 X79.49 Y98.7
G0 F7200 X78.91 Y98.714
G1 F1800 X76.341 Y101.283 E348.13692
G1 X76.271 Y101.353
G0 F7200 X75.775 Y101.283
G1 F1800 X78.344 Y98.714 E348.3786
G1 X78.414 Y98.644
G0 F7200 X77.778 Y98.714
G1 F1800 X75.209 Y101.283 E348.62027
G1 X75.139 Y101.353
G0 F7200 X74.644 Y101.283
G1 F1800 X77.213 Y98.714 E348.86195
G1 X77.283 Y98.644
G0 F7200 X76.647 Y98.714
G1 F1800 X74.078 Y101.283 E349.10362
G1 X74.008 Y101.353
G0 F7200 X73.82 Y100.976
G1 F1800 X76.082 Y98.714 E349.31642
G1 X76.152 Y98.644
G0 F7200 X75.516 Y98.714
G1 F1800 X73.82 Y100.41 E349.47597
G1 X73.75 Y100.48
G0 F7200 X73.821 Y99.844
G1 F1800 X74.951 Y98.714 E349.58227
G1 X75.021 Y98.644
G0 F7200 X74.385 Y98.714
G1 F1800 X73.821 Y99.278 E349.63533
G0 F7200 X77.543 Y92.34
G0 X77.531 Y92.174
;TIME_ELAPSED:189.815337